X:1
T:Hallelujah! What a Savior
T:Hallelujah! What a Savior
T:Philip Paul Bliss, 1875
T:Public Domain Courtesy of the Cyber Hymnal™
C:Philip Paul Bliss, 1875
Z:Public Domain
Z:Courtesy of the Cyber Hymnal™
%%score ( 1 2 ) ( 3 4 )
L:1/8
Q:1/4=110
M:4/4
K:Bb
V:1 treble 
V:2 treble 
V:3 bass 
V:4 bass 
V:1
 [DF]2 [DF]2 [DF]2 [B,D]2 | [DB]2 [DB]2 A4 | [B,G]2 [CG]2 [DF]2 [FB]2 | [FA]2 [=EG]2 F4 | %4
w: 1.~Man of Sor- rows!|what a name|For the Son of|God, who came|
w: 2.~Bear- ing shame and|scoff- ing rude,|In my place con-|demned He stood;|
w: 3.~Guilt- y, vile, and|help- less we;|Spot- less Lamb of|God was He;|
w: 4.~Lift- ed up was|He to die;|“It is fin- ished!”|was His cry;|
w: 5.~When He comes, our|glor- ious king,|All His ran- somed|home to bring,|
 [DF]2 [DF]2 [DF]2 [B,D]2 | [DB]2 [EB]2 [DB]2 [FB]>[Fc] | [Fd]4 [Ec]2 [DB]>[DG] | [EG]4 [DF]4 |] %8
w: Ru- ined sin- ners|to re- claim. Hal- le-|lu- jah! What a|Sav- ior!|
w: Sealed my par- don|with His blood. Hal- le-|lu- jah! What a|Sav- ior!|
w: “Full a- tone- ment!”|can it be? Hal- le-|lu- jah! What a|Sav- ior!|
w: Now in heav’n ex-|alt- ed high. Hal- le-|lu- jah! What a|Sav- ior!|
w: Then a- new His|song we’ll sing: Hal- le-|lu- jah! What a|Sav- ior!|
V:2
 x8 | x4 (D2 C2) | x8 | x4 F4 | x8 | x8 | x8 | x8 |] %8
V:3
 [B,,B,]2 [B,,B,]2 [B,,B,]2 [B,,F,]2 | [G,,G,]2 [G,,G,]2 [D,^F,]4 | %2
 [E,G,]2 [E,A,]2 [D,B,]2 [B,,D]2 | [C,C]2 [C,B,]2 [F,,A,]4 | [B,,B,]2 [B,,B,]2 [B,,B,]2 [B,,F,]2 | %5
 [B,,F,]2 [B,,G,]2 [B,,F,]2 [D,B,]>[F,A,] | B,4 [F,A,]2 [G,B,]>[G,B,] | [E,B,]4 [B,,B,]4 |] %8
V:4
 x8 | x8 | x8 | x8 | x8 | x8 | B,4 x4 | x8 |] %8

